X:57
T:Morgiana in Spain. JBs.057
S:Jas.Blackshaw MS, 1837, N.Shropshire
A:North Shropshire
Z:T. Weatherall 2006
M:6/8
L:1/8
Q:3/8=120
R:Jig
K:G
B2cd2g|B2cd2g|e2ea2g|fge d2c|!
B2cd2g|B2cd2g|e2a fef|g3g2||!
b|a2gf2b|a2gf2b|a2gf2e|d2dd2b|!
a2gf2b|a2gf2b|abg fge|dec BcA|]

